;FLAVOR:Marlin
;TIME:1359
;Filament used: 0.868558m
;Layer height: 0.1
;Generated with Cura_SteamEngine 3.1.0
M190 S70
M104 S205
M109 S205
M82 ; absolute extrusion mode
G28 ;Home
G1 Z15.0 F6000 ;Move the platform down 15mm
;Prime the extruder
G92 E0
G1 F200 E3
G92 E0
;LAYER_COUNT:19
;LAYER:0
M107
G0 F3600 X157.55 Y86.795 Z0.3
;TYPE:WALL-INNER
G1 F2100 X157.55 Y89.404 E0.13016
G1 X44.65 Y89.405 E5.76277
G1 X44.45 Y89.405 E5.77275
G1 X44.45 Y89.205 E5.77921
G1 X44.45 Y86.596 E5.90937
G1 X157.35 Y86.595 E11.54197
G1 X157.55 Y86.595 E11.55195
G1 X157.55 Y86.795 E11.55841
G0 F3600 X157.95 Y86.395
;TYPE:WALL-OUTER
G1 F2100 X157.95 Y89.804 E11.72849
G1 X44.25 Y89.805 E17.401
G1 X44.05 Y89.805 E17.41098
G1 X44.05 Y89.605 E17.41744
G1 X44.05 Y86.196 E17.58752
G1 X157.75 Y86.195 E23.26003
G1 X157.95 Y86.195 E23.27001
G1 X157.95 Y86.395 E23.27647
G0 F3600 X157.95 Y86.595
G0 X157.48 Y86.665
G0 X157.16 Y86.985
;TYPE:SKIN
G1 F2100 X157.16 Y89.014 E23.3777
G1 X44.84 Y89.015 E28.98137
G1 X44.84 Y86.986 E29.0826
G1 X157.16 Y86.985 E34.68626
G0 F3600 X156.979 Y87.399
G1 F2100 X156.744 Y87.165 E34.70281
G0 F3600 X156.178 Y87.165
G1 F2100 X156.979 Y87.965 E34.75929
G1 X157.049 Y88.035
G0 F3600 X156.979 Y88.531
G1 F2100 X155.612 Y87.165 E34.8557
G1 X155.542 Y87.095
G0 F3600 X155.047 Y87.165
G1 F2100 X156.716 Y88.833 E34.97342
G1 X156.786 Y88.903
G0 F3600 X156.15 Y88.833
G1 F2100 X154.481 Y87.165 E35.09115
G1 X154.411 Y87.095
G0 F3600 X153.915 Y87.165
G1 F2100 X155.584 Y88.833 E35.20887
G1 X155.654 Y88.903
G0 F3600 X155.019 Y88.833
G1 F2100 X153.35 Y87.165 E35.32659
G1 X153.28 Y87.095
G0 F3600 X152.784 Y87.165
G1 F2100 X154.453 Y88.833 E35.44431
G1 X154.523 Y88.903
G0 F3600 X153.887 Y88.833
G1 F2100 X152.218 Y87.165 E35.56203
G1 X152.148 Y87.095
G0 F3600 X151.653 Y87.165
G1 F2100 X153.321 Y88.833 E35.67972
G1 X153.391 Y88.903
G0 F3600 X152.756 Y88.833
G1 F2100 X151.087 Y87.165 E35.79744
G1 X151.017 Y87.095
G0 F3600 X150.521 Y87.165
G1 F2100 X152.19 Y88.833 E35.91516
G1 X152.26 Y88.903
G0 F3600 X151.624 Y88.833
G1 F2100 X149.956 Y87.165 E36.03285
G1 X149.886 Y87.095
G0 F3600 X149.39 Y87.165
G1 F2100 X151.059 Y88.833 E36.15057
G1 X151.129 Y88.903
G0 F3600 X150.493 Y88.833
G1 F2100 X148.824 Y87.165 E36.26829
G1 X148.754 Y87.095
G0 F3600 X148.259 Y87.165
G1 F2100 X149.927 Y88.833 E36.38598
G1 X149.997 Y88.903
G0 F3600 X149.362 Y88.833
G1 F2100 X147.693 Y87.165 E36.5037
G1 X147.623 Y87.095
G0 F3600 X147.127 Y87.165
G1 F2100 X148.796 Y88.833 E36.62142
G1 X148.866 Y88.903
G0 F3600 X148.23 Y88.833
G1 F2100 X146.562 Y87.165 E36.73911
G1 X146.492 Y87.095
G0 F3600 X145.996 Y87.165
G1 F2100 X147.665 Y88.833 E36.85683
G1 X147.735 Y88.903
G0 F3600 X147.099 Y88.833
G1 F2100 X145.43 Y87.165 E36.97455
G1 X145.36 Y87.095
G0 F3600 X144.864 Y87.165
G1 F2100 X146.533 Y88.833 E37.09227
G1 X146.603 Y88.903
G0 F3600 X145.968 Y88.833
G1 F2100 X144.299 Y87.165 E37.20999
G1 X144.229 Y87.095
G0 F3600 X143.733 Y87.165
G1 F2100 X145.402 Y88.833 E37.32772
G1 X145.472 Y88.903
G0 F3600 X144.836 Y88.833
G1 F2100 X143.167 Y87.165 E37.44544
G1 X143.097 Y87.095
G0 F3600 X142.602 Y87.165
G1 F2100 X144.27 Y88.833 E37.56312
G1 X144.34 Y88.903
G0 F3600 X143.705 Y88.833
G1 F2100 X142.036 Y87.165 E37.68085
G1 X141.966 Y87.095
G0 F3600 X141.47 Y87.165
G1 F2100 X143.139 Y88.833 E37.79857
G1 X143.209 Y88.903
G0 F3600 X142.573 Y88.833
G1 F2100 X140.905 Y87.165 E37.91625
G1 X140.835 Y87.095
G0 F3600 X140.339 Y87.165
G1 F2100 X142.008 Y88.833 E38.03398
G1 X142.078 Y88.903
G0 F3600 X141.442 Y88.833
G1 F2100 X139.773 Y87.165 E38.1517
G1 X139.703 Y87.095
G0 F3600 X139.208 Y87.165
G1 F2100 X140.876 Y88.833 E38.26938
G1 X140.946 Y88.903
G0 F3600 X140.311 Y88.833
G1 F2100 X138.642 Y87.165 E38.38711
G1 X138.572 Y87.095
G0 F3600 X138.076 Y87.165
G1 F2100 X139.745 Y88.833 E38.50483
G1 X139.815 Y88.903
G0 F3600 X139.179 Y88.833
G1 F2100 X137.511 Y87.165 E38.62251
G1 X137.441 Y87.095
G0 F3600 X136.945 Y87.165
G1 F2100 X138.614 Y88.833 E38.74024
G1 X138.684 Y88.903
G0 F3600 X138.048 Y88.833
G1 F2100 X136.379 Y87.165 E38.85796
G1 X136.309 Y87.095
G0 F3600 X135.813 Y87.165
G1 F2100 X137.482 Y88.833 E38.97568
G1 X137.552 Y88.903
G0 F3600 X136.917 Y88.833
G1 F2100 X135.248 Y87.165 E39.0934
G1 X135.178 Y87.095
G0 F3600 X134.682 Y87.165
G1 F2100 X136.351 Y88.833 E39.21112
G1 X136.421 Y88.903
G0 F3600 X135.785 Y88.833
G1 F2100 X134.116 Y87.165 E39.32884
G1 X134.046 Y87.095
G0 F3600 X133.551 Y87.165
G1 F2100 X135.22 Y88.833 E39.44657
G1 X135.29 Y88.903
G0 F3600 X134.654 Y88.833
G1 F2100 X132.985 Y87.165 E39.56429
G1 X132.915 Y87.095
G0 F3600 X132.419 Y87.165
G1 F2100 X134.088 Y88.833 E39.68201
G1 X134.158 Y88.903
G0 F3600 X133.522 Y88.833
G1 F2100 X131.854 Y87.165 E39.7997
G1 X131.784 Y87.095
G0 F3600 X131.288 Y87.165
G1 F2100 X132.957 Y88.833 E39.91742
G1 X133.027 Y88.903
G0 F3600 X132.391 Y88.833
G1 F2100 X130.722 Y87.165 E40.03514
G1 X130.652 Y87.095
G0 F3600 X130.157 Y87.165
G1 F2100 X131.825 Y88.833 E40.15283
G1 X131.895 Y88.903
G0 F3600 X131.26 Y88.833
G1 F2100 X129.591 Y87.165 E40.27055
G1 X129.521 Y87.095
G0 F3600 X129.025 Y87.165
G1 F2100 X130.694 Y88.833 E40.38827
G1 X130.764 Y88.903
G0 F3600 X130.128 Y88.833
G1 F2100 X128.46 Y87.165 E40.50596
G1 X128.39 Y87.095
G0 F3600 X127.894 Y87.165
G1 F2100 X129.563 Y88.833 E40.62368
G1 X129.633 Y88.903
G0 F3600 X128.997 Y88.833
G1 F2100 X127.328 Y87.165 E40.7414
G1 X127.258 Y87.095
G0 F3600 X126.763 Y87.165
G1 F2100 X128.431 Y88.833 E40.85908
G1 X128.501 Y88.903
G0 F3600 X127.866 Y88.833
G1 F2100 X126.197 Y87.165 E40.97681
G1 X126.127 Y87.095
G0 F3600 X125.631 Y87.165
G1 F2100 X127.3 Y88.833 E41.09453
G1 X127.37 Y88.903
G0 F3600 X126.734 Y88.833
G1 F2100 X125.065 Y87.165 E41.21225
G1 X124.995 Y87.095
G0 F3600 X124.5 Y87.165
G1 F2100 X126.169 Y88.833 E41.32997
G1 X126.239 Y88.903
G0 F3600 X125.603 Y88.833
G1 F2100 X123.934 Y87.165 E41.44769
G1 X123.864 Y87.095
G0 F3600 X123.368 Y87.165
G1 F2100 X125.037 Y88.833 E41.56542
G1 X125.107 Y88.903
G0 F3600 X124.472 Y88.833
G1 F2100 X122.803 Y87.165 E41.68314
G1 X122.733 Y87.095
G0 F3600 X122.237 Y87.165
G1 F2100 X123.906 Y88.833 E41.80086
G1 X123.976 Y88.903
G0 F3600 X123.34 Y88.833
G1 F2100 X121.671 Y87.165 E41.91858
G1 X121.601 Y87.095
G0 F3600 X121.106 Y87.165
G1 F2100 X122.774 Y88.833 E42.03627
G1 X122.844 Y88.903
G0 F3600 X122.209 Y88.833
G1 F2100 X120.54 Y87.165 E42.15399
G1 X120.47 Y87.095
G0 F3600 X119.974 Y87.165
G1 F2100 X121.643 Y88.833 E42.27171
G1 X121.713 Y88.903
G0 F3600 X121.077 Y88.833
G1 F2100 X119.409 Y87.165 E42.3894
G1 X119.339 Y87.095
G0 F3600 X118.843 Y87.165
G1 F2100 X120.512 Y88.833 E42.50712
G1 X120.582 Y88.903
G0 F3600 X119.946 Y88.833
G1 F2100 X118.277 Y87.165 E42.62484
G1 X118.207 Y87.095
G0 F3600 X117.712 Y87.165
G1 F2100 X119.38 Y88.833 E42.74253
G1 X119.45 Y88.903
G0 F3600 X118.815 Y88.833
G1 F2100 X117.146 Y87.165 E42.86025
G1 X117.076 Y87.095
G0 F3600 X116.58 Y87.165
G1 F2100 X118.249 Y88.833 E42.97797
G1 X118.319 Y88.903
G0 F3600 X117.683 Y88.833
G1 F2100 X116.015 Y87.165 E43.09566
G1 X115.945 Y87.095
G0 F3600 X115.449 Y87.165
G1 F2100 X117.118 Y88.833 E43.21338
G1 X117.188 Y88.903
G0 F3600 X116.552 Y88.833
G1 F2100 X114.883 Y87.165 E43.3311
G1 X114.813 Y87.095
G0 F3600 X114.317 Y87.165
G1 F2100 X115.986 Y88.833 E43.44882
G1 X116.056 Y88.903
G0 F3600 X115.421 Y88.833
G1 F2100 X113.752 Y87.165 E43.56654
G1 X113.682 Y87.095
G0 F3600 X113.186 Y87.165
G1 F2100 X114.855 Y88.833 E43.68426
G1 X114.925 Y88.903
G0 F3600 X114.289 Y88.833
G1 F2100 X112.62 Y87.165 E43.80199
G1 X112.55 Y87.095
G0 F3600 X112.055 Y87.165
G1 F2100 X113.723 Y88.833 E43.91967
G1 X113.793 Y88.903
G0 F3600 X113.158 Y88.833
G1 F2100 X111.489 Y87.165 E44.03739
G1 X111.419 Y87.095
G0 F3600 X110.923 Y87.165
G1 F2100 X112.592 Y88.833 E44.15512
G1 X112.662 Y88.903
G0 F3600 X112.026 Y88.833
G1 F2100 X110.358 Y87.165 E44.2728
G1 X110.288 Y87.095
G0 F3600 X109.792 Y87.165
G1 F2100 X111.461 Y88.833 E44.39052
G1 X111.531 Y88.903
G0 F3600 X110.895 Y88.833
G1 F2100 X109.226 Y87.165 E44.50825
G1 X109.156 Y87.095
G0 F3600 X108.661 Y87.165
G1 F2100 X110.329 Y88.833 E44.62593
G1 X110.399 Y88.903
G0 F3600 X109.764 Y88.833
G1 F2100 X108.095 Y87.165 E44.74365
G1 X108.025 Y87.095
G0 F3600 X107.529 Y87.165
G1 F2100 X109.198 Y88.833 E44.86138
G1 X109.268 Y88.903
G0 F3600 X108.632 Y88.833
G1 F2100 X106.964 Y87.165 E44.97906
G1 X106.894 Y87.095
G0 F3600 X106.398 Y87.165
G1 F2100 X108.067 Y88.833 E45.09678
G1 X108.137 Y88.903
G0 F3600 X107.501 Y88.833
G1 F2100 X105.832 Y87.165 E45.21451
G1 X105.762 Y87.095
G0 F3600 X105.266 Y87.165
G1 F2100 X106.935 Y88.833 E45.33223
G1 X107.005 Y88.903
G0 F3600 X106.37 Y88.833
G1 F2100 X104.701 Y87.165 E45.44995
G1 X104.631 Y87.095
G0 F3600 X104.135 Y87.165
G1 F2100 X105.804 Y88.833 E45.56767
G1 X105.874 Y88.903
G0 F3600 X105.238 Y88.833
G1 F2100 X103.569 Y87.165 E45.68539
G1 X103.499 Y87.095
G0 F3600 X103.004 Y87.165
G1 F2100 X104.673 Y88.833 E45.80311
G1 X104.743 Y88.903
G0 F3600 X104.107 Y88.833
G1 F2100 X102.438 Y87.165 E45.92084
G1 X102.368 Y87.095
G0 F3600 X101.872 Y87.165
G1 F2100 X103.541 Y88.833 E46.03856
G1 X103.611 Y88.903
G0 F3600 X102.975 Y88.833
G1 F2100 X101.307 Y87.165 E46.15624
G1 X101.237 Y87.095
G0 F3600 X100.741 Y87.165
G1 F2100 X102.41 Y88.833 E46.27397
G1 X102.48 Y88.903
G0 F3600 X101.844 Y88.833
G1 F2100 X100.175 Y87.165 E46.39169
G1 X100.105 Y87.095
G0 F3600 X99.61 Y87.165
G1 F2100 X101.278 Y88.833 E46.50937
G1 X101.348 Y88.903
G0 F3600 X100.713 Y88.833
G1 F2100 X99.044 Y87.165 E46.62709
G1 X98.974 Y87.095
G0 F3600 X98.478 Y87.165
G1 F2100 X100.147 Y88.833 E46.74482
G1 X100.217 Y88.903
G0 F3600 X99.581 Y88.833
G1 F2100 X97.913 Y87.165 E46.8625
G1 X97.843 Y87.095
G0 F3600 X97.347 Y87.165
G1 F2100 X99.016 Y88.833 E46.98022
G1 X99.086 Y88.903
G0 F3600 X98.45 Y88.833
G1 F2100 X96.781 Y87.165 E47.09795
G1 X96.711 Y87.095
G0 F3600 X96.216 Y87.165
G1 F2100 X97.884 Y88.833 E47.21563
G1 X97.954 Y88.903
G0 F3600 X97.319 Y88.833
G1 F2100 X95.65 Y87.165 E47.33335
G1 X95.58 Y87.095
G0 F3600 X95.084 Y87.165
G1 F2100 X96.753 Y88.833 E47.45108
G1 X96.823 Y88.903
G0 F3600 X96.187 Y88.833
G1 F2100 X94.518 Y87.165 E47.5688
G1 X94.448 Y87.095
G0 F3600 X93.953 Y87.165
G1 F2100 X95.622 Y88.833 E47.68652
G1 X95.692 Y88.903
G0 F3600 X95.056 Y88.833
G1 F2100 X93.387 Y87.165 E47.80424
G1 X93.317 Y87.095
G0 F3600 X92.821 Y87.165
G1 F2100 X94.49 Y88.833 E47.92196
G1 X94.56 Y88.903
G0 F3600 X93.924 Y88.833
G1 F2100 X92.256 Y87.165 E48.03965
G1 X92.186 Y87.095
G0 F3600 X91.69 Y87.165
G1 F2100 X93.359 Y88.833 E48.15737
G1 X93.429 Y88.903
G0 F3600 X92.793 Y88.833
G1 F2100 X91.124 Y87.165 E48.27509
G1 X91.054 Y87.095
G0 F3600 X90.559 Y87.165
G1 F2100 X92.227 Y88.833 E48.39278
G1 X92.297 Y88.903
G0 F3600 X91.662 Y88.833
G1 F2100 X89.993 Y87.165 E48.5105
G1 X89.923 Y87.095
G0 F3600 X89.427 Y87.165
G1 F2100 X91.096 Y88.833 E48.62822
G1 X91.166 Y88.903
G0 F3600 X90.53 Y88.833
G1 F2100 X88.862 Y87.165 E48.74591
G1 X88.792 Y87.095
G0 F3600 X88.296 Y87.165
G1 F2100 X89.965 Y88.833 E48.86363
G1 X90.035 Y88.903
G0 F3600 X89.399 Y88.833
G1 F2100 X87.73 Y87.165 E48.98135
G1 X87.66 Y87.095
G0 F3600 X87.165 Y87.165
G1 F2100 X88.833 Y88.833 E49.09904
G1 X88.903 Y88.903
G0 F3600 X88.268 Y88.833
G1 F2100 X86.599 Y87.165 E49.21676
G1 X86.529 Y87.095
G0 F3600 X86.033 Y87.165
G1 F2100 X87.702 Y88.833 E49.33448
G1 X87.772 Y88.903
G0 F3600 X87.136 Y88.833
G1 F2100 X85.467 Y87.165 E49.4522
G1 X85.397 Y87.095
G0 F3600 X84.902 Y87.165
G1 F2100 X86.571 Y88.833 E49.56993
G1 X86.641 Y88.903
G0 F3600 X86.005 Y88.833
G1 F2100 X84.336 Y87.165 E49.68765
G1 X84.266 Y87.095
G0 F3600 X83.77 Y87.165
G1 F2100 X85.439 Y88.833 E49.80537
G1 X85.509 Y88.903
G0 F3600 X84.874 Y88.833
G1 F2100 X83.205 Y87.165 E49.92309
G1 X83.135 Y87.095
G0 F3600 X82.639 Y87.165
G1 F2100 X84.308 Y88.833 E50.04081
G1 X84.378 Y88.903
G0 F3600 X83.742 Y88.833
G1 F2100 X82.073 Y87.165 E50.15853
G1 X82.003 Y87.095
G0 F3600 X81.508 Y87.165
G1 F2100 X83.176 Y88.833 E50.27622
G1 X83.246 Y88.903
G0 F3600 X82.611 Y88.833
G1 F2100 X80.942 Y87.165 E50.39394
G1 X80.872 Y87.095
G0 F3600 X80.376 Y87.165
G1 F2100 X82.045 Y88.833 E50.51166
G1 X82.115 Y88.903
G0 F3600 X81.479 Y88.833
G1 F2100 X79.811 Y87.165 E50.62935
G1 X79.741 Y87.095
G0 F3600 X79.245 Y87.165
G1 F2100 X80.914 Y88.833 E50.74707
G1 X80.984 Y88.903
G0 F3600 X80.348 Y88.833
G1 F2100 X78.679 Y87.165 E50.86479
G1 X78.609 Y87.095
G0 F3600 X78.114 Y87.165
G1 F2100 X79.782 Y88.833 E50.98248
G1 X79.852 Y88.903
G0 F3600 X79.217 Y88.833
G1 F2100 X77.548 Y87.165 E51.1002
G1 X77.478 Y87.095
G0 F3600 X76.982 Y87.165
G1 F2100 X78.651 Y88.833 E51.21792
G1 X78.721 Y88.903
G0 F3600 X78.085 Y88.833
G1 F2100 X76.417 Y87.165 E51.33561
G1 X76.347 Y87.095
G0 F3600 X75.851 Y87.165
G1 F2100 X77.52 Y88.833 E51.45333
G1 X77.59 Y88.903
G0 F3600 X76.954 Y88.833
G1 F2100 X75.285 Y87.165 E51.57105
G1 X75.215 Y87.095
G0 F3600 X74.719 Y87.165
G1 F2100 X76.388 Y88.833 E51.68877
G1 X76.458 Y88.903
G0 F3600 X75.823 Y88.833
G1 F2100 X74.154 Y87.165 E51.8065
G1 X74.084 Y87.095
G0 F3600 X73.588 Y87.165
G1 F2100 X75.257 Y88.833 E51.92422
G1 X75.327 Y88.903
G0 F3600 X74.691 Y88.833
G1 F2100 X73.022 Y87.165 E52.04194
G1 X72.952 Y87.095
G0 F3600 X72.457 Y87.165
G1 F2100 X74.126 Y88.833 E52.15966
G1 X74.196 Y88.903
G0 F3600 X73.56 Y88.833
G1 F2100 X71.891 Y87.165 E52.27738
G1 X71.821 Y87.095
G0 F3600 X71.325 Y87.165
G1 F2100 X72.994 Y88.833 E52.39511
G1 X73.064 Y88.903
G0 F3600 X72.428 Y88.833
G1 F2100 X70.76 Y87.165 E52.51279
G1 X70.69 Y87.095
G0 F3600 X70.194 Y87.165
G1 F2100 X71.863 Y88.833 E52.63051
G1 X71.933 Y88.903
G0 F3600 X71.297 Y88.833
G1 F2100 X69.628 Y87.165 E52.74823
G1 X69.558 Y87.095
G0 F3600 X69.063 Y87.165
G1 F2100 X70.731 Y88.833 E52.86592
G1 X70.801 Y88.903
G0 F3600 X70.166 Y88.833
G1 F2100 X68.497 Y87.165 E52.98364
G1 X68.427 Y87.095
G0 F3600 X67.931 Y87.165
G1 F2100 X69.6 Y88.833 E53.10136
G1 X69.67 Y88.903
G0 F3600 X69.034 Y88.833
G1 F2100 X67.366 Y87.165 E53.21905
G1 X67.296 Y87.095
G0 F3600 X66.8 Y87.165
G1 F2100 X68.469 Y88.833 E53.33677
G1 X68.539 Y88.903
G0 F3600 X67.903 Y88.833
G1 F2100 X66.234 Y87.165 E53.45449
G1 X66.164 Y87.095
G0 F3600 X65.669 Y87.165
G1 F2100 X67.337 Y88.833 E53.57218
G1 X67.407 Y88.903
G0 F3600 X66.772 Y88.833
G1 F2100 X65.103 Y87.165 E53.6899
G1 X65.033 Y87.095
G0 F3600 X64.537 Y87.165
G1 F2100 X66.206 Y88.833 E53.80762
G1 X66.276 Y88.903
G0 F3600 X65.64 Y88.833
G1 F2100 X63.971 Y87.165 E53.92535
G1 X63.901 Y87.095
G0 F3600 X63.406 Y87.165
G1 F2100 X65.075 Y88.833 E54.04307
G1 X65.145 Y88.903
G0 F3600 X64.509 Y88.833
G1 F2100 X62.84 Y87.165 E54.16079
G1 X62.77 Y87.095
G0 F3600 X62.274 Y87.165
G1 F2100 X63.943 Y88.833 E54.27851
G1 X64.013 Y88.903
G0 F3600 X63.377 Y88.833
G1 F2100 X61.709 Y87.165 E54.3962
G1 X61.639 Y87.095
G0 F3600 X61.143 Y87.165
G1 F2100 X62.812 Y88.833 E54.51392
G1 X62.882 Y88.903
G0 F3600 X62.246 Y88.833
G1 F2100 X60.577 Y87.165 E54.63164
G1 X60.507 Y87.095
G0 F3600 X60.012 Y87.165
G1 F2100 X61.68 Y88.833 E54.74933
G1 X61.75 Y88.903
G0 F3600 X61.115 Y88.833
G1 F2100 X59.446 Y87.165 E54.86705
G1 X59.376 Y87.095
G0 F3600 X58.88 Y87.165
G1 F2100 X60.549 Y88.833 E54.98477
G1 X60.619 Y88.903
G0 F3600 X59.983 Y88.833
G1 F2100 X58.315 Y87.165 E55.10246
G1 X58.245 Y87.095
G0 F3600 X57.749 Y87.165
G1 F2100 X59.418 Y88.833 E55.22018
G1 X59.488 Y88.903
G0 F3600 X58.852 Y88.833
G1 F2100 X57.183 Y87.165 E55.3379
G1 X57.113 Y87.095
G0 F3600 X56.618 Y87.165
G1 F2100 X58.286 Y88.833 E55.45559
G1 X58.356 Y88.903
G0 F3600 X57.721 Y88.833
G1 F2100 X56.052 Y87.165 E55.57331
G1 X55.982 Y87.095
G0 F3600 X55.486 Y87.165
G1 F2100 X57.155 Y88.833 E55.69103
G1 X57.225 Y88.903
G0 F3600 X56.589 Y88.833
G1 F2100 X54.92 Y87.165 E55.80875
G1 X54.85 Y87.095
G0 F3600 X54.355 Y87.165
G1 F2100 X56.024 Y88.833 E55.92647
G1 X56.094 Y88.903
G0 F3600 X55.458 Y88.833
G1 F2100 X53.789 Y87.165 E56.0442
G1 X53.719 Y87.095
G0 F3600 X53.223 Y87.165
G1 F2100 X54.892 Y88.833 E56.16192
G1 X54.962 Y88.903
G0 F3600 X54.327 Y88.833
G1 F2100 X52.658 Y87.165 E56.27964
G1 X52.588 Y87.095
G0 F3600 X52.092 Y87.165
G1 F2100 X53.761 Y88.833 E56.39736
G1 X53.831 Y88.903
G0 F3600 X53.195 Y88.833
